X: 6
T: The Connaught Heifers
R: reel
M: 4/4
L: 1/8
K: Dmaj
|:F3G A2BG|A2BG AGFD|FEFG AG G2|DG G2 =cAAG|
FEFG A2BG|A2BG AGFD|FEFG AG G2|DG G2 =cAAg||
|:fgef d2cA|A2BG ABdg|fgef d2cA|BG G2 AGFD|
fgef d2cA|A2BG ABde|fdef d2 cA|BG G2 AGFD ||


Tune 970	Setting 25736

